X:1
T:Title
%%score 1 2
L:1/8
Q:1/4=80
M:4/4
K:Eb
V:1 treble nm="Strings 1, SOPRANO ALTO"
V:2 bass nm="Strings 1, TENOR BASS"
V:1
 z4 z2 [GB][GB] | [GB]2 [EG][EB] [Ge]2 [Ac]2 | [GB]6 GB | [Ec][EB][EG][EB] [DB]2 [DF]2 | %4
w: 1.~Up,~ a|way~ to~ the~ har vest~|field,~ * *|Gath er~ in~ the~ gold en~|
 [EG]6 [GB][GB] | [GB]2 [EG][EB] [Ge]2 [Bd]2 | [Ac]6 Ac | [AB][Ac][AB][Ac] [Ad]2 [AB]2 | [Ge]6 z2 | %9
w: yield;~ Gird~ your~|ar mor~ and~ faith ful~|be,~ * *|For~ the~ Mas ter~ call eth~|thee.~|
 [GB][_Gc][=GB][Ac] [GB]3 [Be] | [Ac][ce][Bd][Ac] [GB]4 | [FA][FA][DF][EG] [FA]3 [GB] | %12
w: |||
 [Ac][GB][FA][GB] [EG]4 | [GB][_Gc][=GB][Ac] [GB]3 [GB] | [Ge][Fd][Ge][GB] [Ac]4 | %15
w: |||
 [AB][Ac][AB][Ac] [Ad]2 [AB]2 | [Ge]6 z2 |] %17
w: ||
V:2
 z4 z2 [E,E][E,E] | [E,E]2 [E,B,][E,G,] [E,B,]2 [E,E]2 | [E,E]6 z2 | %3
 [E,G,][E,G,][E,B,][E,G,] [B,,F,]2 [B,,B,]2 | [E,B,]6 [E,E][E,E] | %5
 [E,E]2 [E,B,][E,G,] [E,B,]2 [G,E]2 | [A,E]6 z2 | [B,D][B,D][B,D][B,D] B,2 [B,D]2 | [E,B,]6 z2 | %9
 [E,E][E,C][E,E][E,E] [E,E]3 [G,E] | [A,E][A,E][A,E][A,E] [E,E]4 | %11
 [B,,D][B,,D][B,,B,][B,,B,] [B,,D]3 [B,,E] | [B,,D][B,,E][B,,D][B,,D] [E,B,]4 | %13
 [E,E][E,C][E,E][E,E] [E,E]3 [E,E] | [E,B,][E,B,][E,B,][E,E] [A,E]4 | %15
 [B,D][B,D][B,D][B,D] B,2 [B,D]2 | [E,B,]6 z2 |] %17

